src/icons/blockchains/dark/aurora.svg

<svg width="24" height="24" viewBox="0 0 24 24" fill="none" xmlns="http://www.w3.org/2000/svg">
  <rect width="24" height="24" rx="12" fill="#080530" />
  <mask
    id="mask0_1131_18501"
    style="mask-type: alpha"
    maskUnits="userSpaceOnUse"
    x="4"
    y="4"
    width="16"
    height="16"
  >
    <rect x="4" y="4" width="16" height="16" fill="#D9D9D9" />
  </mask>
  <g mask="url(#mask0_1131_18501)">
    <path
      d="M11.9925 5.14507C12.6275 5.14507 13.2001 5.499 13.4811 6.06112L18.1655 15.4299C18.5819 16.2522 18.2488 17.2516 17.4264 17.668C17.1974 17.7825 16.9371 17.8449 16.6769 17.8449H7.30815C6.39209 17.8449 5.64259 17.0954 5.64259 16.1794C5.64259 15.9191 5.70505 15.6693 5.81956 15.4299L10.5039 6.06112C10.785 5.499 11.3575 5.14507 11.9925 5.14507ZM11.9925 4C10.9307 4 9.95222 4.60376 9.48378 5.55105L4.79941 14.9198C4.10195 16.3043 4.66408 18.0011 6.05898 18.6881C6.45455 18.8859 6.88135 18.99 7.31856 18.99H16.6873C18.2384 18.99 19.4979 17.7304 19.4979 16.1794C19.4979 15.7422 19.3938 15.3154 19.1961 14.9198L14.5117 5.55105C14.0328 4.60376 13.0543 4 11.9925 4Z"
      fill="white"
    />
  </g>
</svg>

<svg
  xmlns="http://www.w3.org/2000/svg"
  width="24"
  height="24"
  fill="none"
  xmlns:v="https://vecta.io/nano"
>
  <rect width="24" height="24" rx="12" fill="#080530" />
  <mask id="A" maskUnits="userSpaceOnUse" x="4" y="4" width="16" height="16" mask-type="alpha">
    <path fill="#d9d9d9" d="M4 4h16v16H4z" />
  </mask>
  <g mask="url(#A)">
    <path
      d="M11.993 5.145c.635 0 1.208.354 1.489.916l4.684 9.369c.416.822.083 1.822-.739 2.238a1.69 1.69 0 0 1-.75.177H7.308a1.67 1.67 0 0 1-1.666-1.665c0-.26.062-.51.177-.75l4.684-9.369c.281-.562.854-.916 1.489-.916zm0-1.145c-1.062 0-2.04.604-2.509 1.551L4.799 14.92a2.8 2.8 0 0 0 1.26 3.768c.396.198.822.302 1.26.302h9.369c1.551 0 2.811-1.26 2.811-2.811 0-.437-.104-.864-.302-1.26l-4.684-9.369A2.83 2.83 0 0 0 11.993 4z"
      fill="#fff"
    />
  </g>
</svg>
